X: 1
T: Hughie Shorty's Reel
T: Hugh Shorty's Reel
C: Johnny Wilmot
O: Cape Breton
S: transcription by Terry Traub, MS from Barbara McOwen
Z: 2019 by John Chambers <jc:trillian.mit.edu>
B: BSFC Session Tune Book 2016 p.67
B: BSFC X-7
M: C|
L: 1/8
K: G
|: D2 \
|  "G"G2Bd "D7"cAFD | "G"GABd "G7"g2f{g}a | "C"ecAc "G"dBGB | "Am"cAAB "D7"AFD2 |
|  "G"G2Bd "D7"cAFD | "G"GABd "G7"g2f{g}a | "C"ecAc "G"dBGB | "D7"cAGF "G"G2 :|
|: ef \
|  "G"g2dg bgag | "C"ec~c2 "(Am)"efge | "G"dB~B2 "(Em)"dBGB | "Am"cAAB "D7"AFD2 |
|1 "G"g2dg bgag | "C"ec~c2 "(Am)"efge | "G"dB~B2 "(Em)"dBGB | "D7"cAGF "G"G2 :|
|2 "C"{G}C2EC "G"B,DGB | "D7"cdef "G"g2f{g}a | "Am"ecAc "G"dBGB | "D7"cAGF "G"G2 |]
